X: 40481
T: Tombigbee
R: waltz
M: 3/4
K: Cmajor
{Bc}BA|G2 B2 B2|{B}d4 BA|G2 B2 B2|{B}d4 B2|cB A2 A2|A2 B2 d2|e4 d2|
B4 {Bc}BA|G2 B2 B2|{B}d4 BA|G2 B2 B2|{B}d4 B2|cB A2 A2|A2 B2 d2|e2 d2 B2|G4:|
|:d2|g4 d2|g4 d2|e3 d e2|d4 B2|cB A2 A2|A2 B2 d2|e4 d2|B4 d2|g4 d2|g4 d2|
e3 d e2|d4 B2|cB A2 A2|A2 B2 d2|e2 d2 B2|G4:|

